!!!OTL: ZUM HAHN SAGT DIE TAUBA
!!!ARE: Europa, Mitteleuropa, Oesterreich
!!!SCT: B0445
!!!YEM: Copyright 1995, estate of Helmut Schaffrath.
**kern
*ICvox
*Ivox
*M3/4
*k[b-]
*F:
{4c
=1
4a
4g
4f
=2
8e
8f
4g}
{4c
=3
4b-
4a
4g
=4
8f
8g
4a}
{4c
=5
4a
4g
4f
=6
4ff
4dd}
{8b-
8a
=7
4g
8g
8f
8g
8a
=8
4f
4r}
==
!!!AGN: Liebes - Lied, anti - Ehe
!!!ONB: ESAC (Essen Associative Code) Database: BOEHME
!!!AMT: simple triple
!!!AIN: vox
!!!EED: Helmut Schaffrath
!!!EEV: 1.0
*-
